src/public/front_end/Images/ic_show_node_16x16.svg

<svg width="16" height="16" viewBox="0 0 16 16" fill="none" xmlns="http://www.w3.org/2000/svg">
<path d="M11.3333 3.33333H10V2H11.3333V3.33333ZM12.6667 6H14V4.66667H12.6667V6ZM12.6667 8.66667H14V7.33333H12.6667V8.66667ZM7.33333 14H8.66667V12.6667H7.33333V14ZM4.66667 3.33333H6V2H4.66667V3.33333ZM2 11.3333H3.33333V10H2V11.3333ZM3.33333 14V12.6667H2C2 13.4 2.6 14 3.33333 14ZM12.6667 2V3.33333H14C14 2.6 13.4 2 12.6667 2ZM7.33333 3.33333H8.66667V2H7.33333V3.33333ZM2 6H3.33333V4.66667H2V6ZM4.66667 14H6V12.6667H4.66667V14ZM2 8.66667H3.33333V7.33333H2V8.66667ZM2 3.33333H3.33333V2C2.6 2 2 2.6 2 3.33333Z" fill="black"/>
<path d="M8.0013 11.3333H6.66797V6.66663H11.3346V7.99996H8.9413L12.668 12L11.728 12.94L8.0013 8.93996V11.3333Z" fill="black"/>
</svg>

<svg width="16" height="16" fill="none" xmlns="http://www.w3.org/2000/svg"><path d="M11.333 3.333H10V2h1.333v1.333zM12.667 6H14V4.667h-1.333V6zm0 2.667H14V7.333h-1.333v1.334zM7.333 14h1.334v-1.333H7.333V14zM4.667 3.333H6V2H4.667v1.333zm-2.667 8h1.333V10H2v1.333zM3.333 14v-1.333H2C2 13.4 2.6 14 3.333 14zm9.334-12v1.333H14C14 2.6 13.4 2 12.667 2zM7.333 3.333h1.334V2H7.333v1.333zM2 6h1.333V4.667H2V6zm2.667 8H6v-1.333H4.667V14zM2 8.667h1.333V7.333H2v1.334zm0-5.334h1.333V2C2.6 2 2 2.6 2 3.333zM8.001 11.333H6.668V6.667h4.667V8H8.94l3.727 4-.94.94-3.727-4v2.393z" fill="#000"/></svg>
